icons/arrow-circle-downleft.svg

<svg width="24" height="24" viewBox="0 0 24 24" fill="none" xmlns="http://www.w3.org/2000/svg">
<path fill-rule="evenodd" clip-rule="evenodd" d="M3.75 12C3.75 16.5563 7.44365 20.25 12 20.25C16.5563 20.25 20.25 16.5563 20.25 12C20.25 7.44365 16.5563 3.75 12 3.75C7.44365 3.75 3.75 7.44365 3.75 12ZM12 21.75C6.61522 21.75 2.25 17.3848 2.25 12C2.25 6.61522 6.61522 2.25 12 2.25C17.3848 2.25 21.75 6.61522 21.75 12C21.75 17.3848 17.3848 21.75 12 21.75Z" fill="black"/>
<path fill-rule="evenodd" clip-rule="evenodd" d="M14.6254 8.68744C14.9183 8.98034 14.9183 9.45521 14.6254 9.7481L9.95853 14.415C9.66563 14.7079 9.19076 14.7079 8.89787 14.415C8.60497 14.1221 8.60497 13.6472 8.89787 13.3543L13.5648 8.68744C13.8577 8.39455 14.3325 8.39455 14.6254 8.68744Z" fill="black"/>
<path fill-rule="evenodd" clip-rule="evenodd" d="M14.1379 14.1676C14.1379 14.5818 13.8022 14.9176 13.3879 14.9176L9.85241 14.9176C9.15536 14.9176 8.60744 14.3697 8.60744 13.6726L8.60744 10.1371C8.60744 9.72288 8.94323 9.38709 9.35744 9.38709C9.77165 9.38709 10.1074 9.72288 10.1074 10.1371L10.1074 13.4176L13.3879 13.4176C13.8022 13.4176 14.1379 13.7534 14.1379 14.1676Z" fill="black"/>
</svg>

<svg xmlns="http://www.w3.org/2000/svg" fill="none" viewBox="0 0 24 24">
  <path fill="#000" fill-rule="evenodd" d="M3.75 12a8.25 8.25 0 1 0 16.5 0 8.25 8.25 0 0 0-16.5 0ZM12 21.75c-5.385 0-9.75-4.365-9.75-9.75S6.615 2.25 12 2.25s9.75 4.365 9.75 9.75-4.365 9.75-9.75 9.75Z" clip-rule="evenodd"/>
  <path fill="#000" fill-rule="evenodd" d="M14.625 8.687a.75.75 0 0 1 0 1.061L9.96 14.415a.75.75 0 1 1-1.061-1.06l4.667-4.668a.75.75 0 0 1 1.06 0Z" clip-rule="evenodd"/>
  <path fill="#000" fill-rule="evenodd" d="M14.138 14.168a.75.75 0 0 1-.75.75H9.852a1.233 1.233 0 0 1-1.245-1.245v-3.536a.75.75 0 1 1 1.5 0v3.28h3.28a.75.75 0 0 1 .75.75Z" clip-rule="evenodd"/>
</svg>
